!!!COM: Gomółka, Mikołaj
!!!CDT: ~1535-after 1591
!!!OTL: W Tobie ufnosć swą kłádę
!!!OTL@LAT: In te domine speravi
!!!AGn: Motet; Psalm
!!!SCn: Gom2031
!!!voices: 4
!!!CNT: Polish
!!!OCY: Poland
!!!LYR: Jan Kochanowski (1530-1584/08/22)
!!!GTL: Melodiae na Psałterz Polski
!!!EFL: 31/150
!!!PPR: Łazarz Andrysowicz
!!!PPP: Kraków
!!!PDT: 1580
!!!YEC: 2015 Marcin Konik
!!!ENC: Marcin Konik
!!!END: 2015/05/19
!!!EED: Marcin Konik
!!!EEV: 2015/05/19
!!!ONB: Translated from MusicXM and edited on 2015/03/06 by Marcin Konik
!!!CharacterEncoding: utf-8
!!muse2ps: i2I150v85,85,85,150Q16
**kern	**kern	**kern	**kern
*staff4	*staff3	*staff2	*staff1
*Ivox	*Ivox	*Ivox	*Ivox
*I"Bassus	*I"Tenor	*I"Altus	*I"Cantus
*I'B	*I'T	*I'A	*I'C
*clefF4	*clefC3	*clefC3	*clefC1
*k[b-]	*k[b-]	*k[b-]	*k[b-]
*M2/1	*M2/1	*M2/1	*M2/1
*met(C|)	*met(C|)	*met(C|)	*met(C|)
=1-	=1-	=1-	=1-
1r	1r	1r	1r
1F	1c	1f	1f
=2	=2	=2	=2
2C	2c	2e	2cc
1F	1c	1f	1a
4E	2d	2f	4g
4D	.	.	4f
=3	=3	=3	=3
2C	2e	2c	4g
.	.	.	4a
2G	4d	2B-	2b-
.	4e	.	.
2.A	2.f	2.c	2a
.	.	.	[2a
4G	4e	4B-	.
=4	=4	=4	=4
2F	2d	4A	2a]
.	.	4B-	.
2E	2g	2c	2g
2D	2.f	2d	4a
.	.	.	4b-
2C	.	[2g	[2cc
.	4e	.	.
=5	=5	=5	=5
1G	4d	4g]	2cc]
.	4c	4f	.
.	2d	4f	2b
.	.	8e	.
.	.	8d	.
2C	2c	2e	2cc
[2F	[2A	[2f	[2cc
=6	=6	=6	=6
2F]	2A]	2f]	2cc]
2G	2B-	2d	2b-
2A	2c	2c	1a
2F	2c	4f	.
.	.	4e	.
=7	=7	=7	=7
2G	2c	4d	2g
.	.	4d	.
2G	2B	2d	2g
2.C	1c	2.g	2.e
4D	.	4f	4f
=8	=8	=8	=8
2E	2c	4e	2g
.	.	4d	.
2F	2A	2c	2a
2BB-	4B-	2d	4g
.	4A	.	4f
2D	4G	2B-	[2f
.	4F	.	.
=9	=9	=9	=9
1C	1G	2.c	2f]
.	.	.	2e
.	.	4B-	.
1FF	1F	1A	1f
=10	=10	=10	=10
2r	2r	2r	2r
1F	1c	1f	1a
2C	2c	2e	2g
=11	=11	=11	=11
2F	2c	2f	2a
2G	2B-	4d	2b-
.	.	4e	.
2.A	2.c	2.f	2a
.	.	.	2cc
4G	4B-	4e	.
=12	=12	=12	=12
2F	2A	2e	4cc
.	.	.	4b-
2F	4f	2c	2a
.	4e	.	.
2.G	1d	4B-	4g
.	.	4c	4f
.	.	4d	4g
4F	.	4e	4a
=13	=13	=13	=13
4D	2d	2f	4b-
4E	.	.	4a
2F	2c	2f	1a
1G	1B-	2.d	.
.	.	.	2g
.	.	4e	.
=14	=14	=14	=14
2F	2A	2f	2a
1F	2A	1f	1a
.	2c	.	.
2C	[2c	2e	2g
=15	=15	=15	=15
2F	2c]	2f	2a
2G	2B-	4d	2b-
.	.	4e	.
2F	2.c	2f	2.a
2F	.	2f	.
.	4d	.	4b-
=16	=16	=16	=16
2C	2e	2g	2cc
2D	2d	2f	2a
1BB-	2.d	2.f	2.b-
.	4c	4e	4a
=17	=17	=17	=17
2BB-	2.B-	2d	4g
.	.	.	4f
2FF	.	2c	1f
.	4A	.	.
1C	4G	2.c	.
.	4F	.	.
.	2G	.	2e
.	.	4B-	.
=18	=18	=18	=18
0FF	0F	0A	0f
==	==	==	==
*-	*-	*-	*-
